Origami/48x48/apps/stepmania-ssc.svg

<svg width="48" height="48" version="1.1" viewBox="0 0 36 36" xmlns="http://www.w3.org/2000/svg">
 <g transform="translate(33.967978 .45664088)" style="opacity:.2">
  <path transform="matrix(.74999998 0 0 .74999998 -33.967978 .29335906)" d="m11 4c-3.8780001 0-7 3.1219999-7 7 0 3.878 3.1219999 7 7 7h9.099609l-14.042968 14.042969c-2.7421601 2.74216-2.7421601 7.15823 0 9.90039 2.7421602 2.742161 7.1582304 2.742161 9.9003904 0l14.042969-14.042968v9.099609c0 3.878 3.122 7 7 7s7-3.122 7-7v-26c0-3.8780001-3.122-7-7-7z"/>
 </g>
 <g transform="translate(33.967978 -.29335906)" style="fill:#e7b212">
  <path transform="matrix(.74999998 0 0 .74999998 -33.967978 .29335906)" d="m11 4c-3.8780001 0-7 3.1219999-7 7 0 3.878 3.1219999 7 7 7h9.099609l-14.042968 14.042969c-2.7421601 2.74216-2.7421601 7.15823 0 9.90039 2.7421602 2.742161 7.1582304 2.742161 9.9003904 0l14.042969-14.042968v9.099609c0 3.878 3.122 7 7 7s7-3.122 7-7v-26c0-3.8780001-3.122-7-7-7h-26z" style="fill:#e7b212"/>
 </g>
 <g transform="translate(33.967978 -.29335906)" style="fill:#ffffff">
  <path transform="matrix(.74999998 0 0 .74999998 -33.967978 .29335906)" d="m11 4c-3.8780001 0-7 3.1219999-7 7 0 0.169082 0.0137169 0.333988 0.0253906 0.5 0.2560696-3.6415664 3.2656918-6.5 6.9746094-6.5h26c3.878 0 7 3.1219999 7 7v-1c0-3.8780001-3.122-7-7-7h-26zm8.099609 15l-13.042968 13.042969c-1.4986245 1.498624-2.1726124 3.497146-2.0332031 5.449219 0.1159816-1.619298 0.7900386-3.206055 2.0332031-4.449219l14.042968-14.042969h-1z" style="fill:#ffffff;opacity:.2"/>
 </g>
</svg>

<svg xmlns="http://www.w3.org/2000/svg" width="48" height="48" version="1.1" viewBox="0 0 36 36">
 <g style="opacity:0.2" transform="translate(33.967978,0.45664088)">
  <path d="m 11,4 c -3.8780001,0 -7,3.1219999 -7,7 0,3.878 3.1219999,7 7,7 h 9.099609 L 6.0566406,32.042969 c -2.7421601,2.74216 -2.7421601,7.15823 0,9.90039 2.7421602,2.742161 7.1582304,2.742161 9.9003904,0 L 30,27.900391 V 37 c 0,3.878 3.122,7 7,7 3.878,0 7,-3.122 7,-7 V 11 C 44,7.1219999 40.878,4 37,4 Z" transform="matrix(0.74999998,0,0,0.74999998,-33.967978,0.29335906)"/>
 </g>
 <g transform="translate(33.967978,-0.29335906)" style="fill:#e7b212">
  <path style="fill:#e7b212" d="M 11 4 C 7.1219999 4 4 7.1219999 4 11 C 4 14.878 7.1219999 18 11 18 L 20.099609 18 L 6.0566406 32.042969 C 3.3144805 34.785129 3.3144805 39.201199 6.0566406 41.943359 C 8.7988008 44.68552 13.214871 44.68552 15.957031 41.943359 L 30 27.900391 L 30 37 C 30 40.878 33.122 44 37 44 C 40.878 44 44 40.878 44 37 L 44 11 C 44 7.1219999 40.878 4 37 4 L 11 4 z" transform="matrix(0.74999998,0,0,0.74999998,-33.967978,0.29335906)"/>
 </g>
 <g style="fill:#ffffff" transform="translate(33.967978,-0.29335906)">
  <path style="opacity:0.2;fill:#ffffff" d="M 11 4 C 7.1219999 4 4 7.1219999 4 11 C 4 11.169082 4.0137169 11.333988 4.0253906 11.5 C 4.2814602 7.8584336 7.2910824 5 11 5 L 37 5 C 40.878 5 44 8.1219999 44 12 L 44 11 C 44 7.1219999 40.878 4 37 4 L 11 4 z M 19.099609 19 L 6.0566406 32.042969 C 4.5580161 33.541593 3.8840282 35.540115 4.0234375 37.492188 C 4.1394191 35.87289 4.8134761 34.286133 6.0566406 33.042969 L 20.099609 19 L 19.099609 19 z" transform="matrix(0.74999998,0,0,0.74999998,-33.967978,0.29335906)"/>
 </g>
</svg>
